X:1
T: Brig of Perth
C:
R:Strathspey
Q: 128
K:A
M:4/4
L:1/16
|:e2|ABcd e3A d3A fA3|c3A e3c a3e c3e|ABcd e3d c3e Ae3|B3d =G3B g3d B2e2|
ABcd e3A d3A fA3|c3A e3c a3e c3e|ABcd e3d c3e Ae3|B3d =G3B g3d B2e2|
A3a e3a c3a ea3|Aa3 e3f e3A c4|A3a e3a c3a A3a|=g3a d3g B3=G B4|
A3a e3a c3a ea3|Aa3 e3f e3A c4|A3a e3a c3a A3a|=g3a d3g B3=G B2:|
